packages/foundations/assets/icons/functional/images/social/heart_24.svg

<svg width="24" height="24" viewBox="0 0 24 24" fill="none" xmlns="http://www.w3.org/2000/svg">
<g clip-path="url(#clip0_187_410)">
<path fill-rule="evenodd" clip-rule="evenodd" d="M16.563 3.45331C19.593 3.45331 22 5.92231 22 8.92231C22 10.2973 21.533 11.7053 20.437 12.7663L12.687 20.2663C12.5982 20.3582 12.4913 20.4305 12.373 20.4787C12.2547 20.5269 12.1277 20.5499 12 20.5463C11.8726 20.5471 11.7462 20.5228 11.6281 20.4748C11.5101 20.4267 11.4027 20.3559 11.312 20.2663L3.594 12.7663C2.532 11.7333 2 10.3273 2 8.92231C2 5.92231 4.438 3.45331 7.438 3.45331C8.875 3.45331 10.265 4.03131 11.281 5.04731L12 5.76531L12.719 5.04731C13.7412 4.03167 15.122 3.45908 16.563 3.45331ZM16.563 5.45331C15.688 5.45331 14.781 5.82831 14.125 6.48431L12.719 7.89131C12.527 8.08192 12.2703 8.1933 12 8.20331C11.75 8.20331 11.5 8.07831 11.312 7.89031L9.876 6.45331C9.22428 5.81564 8.34978 5.45694 7.438 5.45331C5.532 5.45331 4 7.01631 4 8.92231C4 9.79731 4.319 10.6653 5 11.3283L12 18.1413L19 11.3283C19.326 11.0114 19.5851 10.6324 19.7622 10.2136C19.9393 9.7949 20.0307 9.34494 20.031 8.89031C20.031 7.01631 18.469 5.45331 16.563 5.45331Z" fill="#1A1C1F"/>
</g>
<defs>
<clipPath id="clip0_187_410">
<rect width="24" height="24" fill="white"/>
</clipPath>
</defs>
</svg>

<svg xmlns="http://www.w3.org/2000/svg" width="24" height="24" fill="none"><g clip-path="url(#a)"><path fill="#1A1C1F" fill-rule="evenodd" d="M16.563 3.453c3.03 0 5.437 2.47 5.437 5.47 0 1.374-.467 2.782-1.563 3.843l-7.75 7.5a.92.92 0 0 1-.687.28.97.97 0 0 1-.688-.28l-7.718-7.5C2.532 11.733 2 10.327 2 8.922c0-3 2.438-5.469 5.438-5.469 1.437 0 2.827.578 3.843 1.594l.719.718.719-.718a5.49 5.49 0 0 1 3.844-1.594m0 2c-.875 0-1.782.375-2.438 1.031l-1.406 1.407c-.192.19-.449.302-.719.312-.25 0-.5-.125-.688-.313L9.876 6.453a3.5 3.5 0 0 0-2.438-1C5.532 5.453 4 7.016 4 8.923c0 .874.319 1.742 1 2.405l7 6.813 7-6.813a3.4 3.4 0 0 0 1.031-2.438c0-1.874-1.562-3.437-3.468-3.437" clip-rule="evenodd"/></g><defs><clipPath id="a"><path fill="#fff" d="M0 0h24v24H0z"/></clipPath></defs></svg>
